assets/2023/icons/haskell.svg

<svg width="16" height="16" viewBox="0 0 16 16" fill="none" xmlns="http://www.w3.org/2000/svg">
<path d="M1 12.9998L4.29425 8L1 3H3.47069L6.76493 8L3.47069 12.9998H1Z" fill="#473D62"/>
<path d="M4.29492 12.9998L7.58917 8L4.29492 3H6.76561L13.3541 13H10.8837L8.82492 9.87519L6.76572 13L4.29492 12.9998Z" fill="#8D4F8A"/>
<path d="M12.255 10.0826L11.1569 8.41582H15.0002V10.0827L12.255 10.0826ZM10.6078 7.58276L9.50977 5.91602H15.0002V7.58276H10.6078Z" fill="#B5218B"/>
</svg>

<svg xmlns="http://www.w3.org/2000/svg" width="16" height="16" fill="none" viewBox="0 0 16 16"><path fill="#473D62" d="m1 13 3.294-5L1 3h2.47l3.295 5-3.294 5z"/><path fill="#8D4F8A" d="m4.295 13 3.294-5-3.294-5h2.47l6.59 10h-2.471l-2.06-3.125L6.767 13z"/><path fill="#B5218B" d="m12.255 10.083-1.098-1.667H15v1.667zm-1.647-2.5L9.51 5.916H15v1.667z"/></svg>
